X: 944
T: Madam if you please
C: anon.
O: Ireland
B: Francis O'Neill: "The Dance Music of Ireland" (1907) no. 944
R: Hornpipe
Z: Transcribed by Frank Nordberg - http://www.musicaviva.com
F: http://www.musicaviva.com/abc/tunes/ireland/oneill-1001/oneill-1001-094
4.abc
M: C|
L: 1/8
K: G
(GF)|DGB(D G2)FD|G(Acd) fdge|f(dcA) dcBG|FDB(A GF)DC|D(GGF) DGBA|G(Acd) f
2(ge)|fd (3(cBA) BGAF|D2G2G2:|
|:(Bc)|d(cde) fAB(g|fd)cA d2de|f(edc) (3(ABc) (AG)|FDB(A GF)DC|D(GGF) GBA
(G|FG)AB c d (3(efg)|(fd)c(e dc)B(A|G2) GFG2:|
W:
W:
W: From Musica Viva - http://www.musicaviva.com
W: the Internet center for free sheet music downloads.


